icons/mobile/24/svg/signature-properties-24.svg

<!-- This Source Code Form is subject to the terms of the Mozilla Public
   - License, v. 2.0. If a copy of the MPL was not distributed with this
   - file, You can obtain one at http://mozilla.org/MPL/2.0/. -->
<svg width="24" height="24" viewBox="0 0 24 24" fill="none" xmlns="http://www.w3.org/2000/svg">
    <path d="M8 18.0003H4V16.2503H8V18.0003Z" fill="black" />
    <path d="M14 18.0003H10V16.2503H14V18.0003Z" fill="black" />
    <path d="M20 18.0003H16V16.2503H20V18.0003Z" fill="black" />
    <path d="M7.74707 6.98464C8.48038 5.45906 10.7406 5.78531 11.0977 7.38796L11.127 7.553L11.3086 8.81082C11.4773 9.88955 11.6493 10.7349 11.8203 11.3567C12.5558 9.45806 15.1413 9.08802 16.3516 10.7776L16.8584 11.4837C17.1203 11.8496 17.5501 12.0724 18.0137 12.0725H20V13.8225H18.0137C17.0553 13.8224 16.1496 13.3923 15.5508 12.6546L15.4355 12.5032L14.9297 11.7971C14.5396 11.2521 13.6741 11.3661 13.4424 12.013C13.2972 12.4187 13.1401 12.8161 12.9814 13.1223C12.9044 13.271 12.8058 13.4387 12.6855 13.5813C12.6251 13.653 12.5358 13.7464 12.415 13.8264C12.2947 13.9061 12.0939 14.0036 11.833 13.9973C11.2072 13.9822 10.8465 13.5017 10.6807 13.2278C10.4835 12.9022 10.3221 12.4752 10.1816 11.9944C9.89706 11.0201 9.63605 9.60729 9.39258 7.78543L9.38867 7.76687C9.38806 7.76504 9.38701 7.76362 9.38672 7.76296C9.38279 7.76014 9.37098 7.75277 9.35059 7.75027C9.33612 7.74851 9.32628 7.74999 9.32129 7.75125C9.31964 7.75426 9.31701 7.7592 9.31445 7.76589L7.7832 11.7962C7.31786 13.0213 6.13508 13.8225 4.8252 13.8225H4V12.0725H4.8252C5.42089 12.0725 5.94368 11.7084 6.14648 11.1741L7.67871 7.14382L7.74707 6.98464Z" fill="black" />
</svg>

<!-- This Source Code Form is subject to the terms of the Mozilla Public
   - License, v. 2.0. If a copy of the MPL was not distributed with this
   - file, You can obtain one at http://mozilla.org/MPL/2.0/. -->
<svg xmlns="http://www.w3.org/2000/svg" width="24" height="24" fill="none" viewBox="0 0 24 24">
    <path fill="#000" d="M8 18H4v-1.75h4zM14 18h-4v-1.75h4zM20 18h-4v-1.75h4zM7.747 6.985c.733-1.526 2.994-1.2 3.35.403l.03.165.182 1.258c.168 1.079.34 1.924.511 2.546.736-1.899 3.321-2.269 4.532-.58l.506.707a1.42 1.42 0 0 0 1.156.588H20v1.75h-1.986c-.959 0-1.864-.43-2.463-1.167l-.116-.152-.505-.706c-.39-.545-1.256-.43-1.488.216a10 10 0 0 1-.46 1.11 2.5 2.5 0 0 1-.296.458c-.06.072-.15.165-.271.245a1 1 0 0 1-.582.171c-.626-.015-.986-.495-1.152-.77-.197-.325-.359-.752-.5-1.233-.284-.974-.545-2.387-.788-4.209l-.004-.018-.002-.004a.1.1 0 0 0-.036-.013.1.1 0 0 0-.03.001l-.007.015-1.53 4.03a3.16 3.16 0 0 1-2.959 2.027H4v-1.75h.825c.596 0 1.119-.365 1.321-.899l1.533-4.03z" />
</svg>
